icons/BatteryHorizontalWarning.svg

<svg width="24" height="24" viewBox="0 0 24 24" fill="none" xmlns="http://www.w3.org/2000/svg">
<path fill-rule="evenodd" clip-rule="evenodd" d="M5.50003,6.25003h2.81303c-0.30866,0.42907 -0.5068,0.94296 -0.55275,1.5h-2.26028c-0.69036,0 -1.25,0.55964 -1.25,1.25v5.99997c0,0.6904 0.55964,1.25 1.25,1.25h2.37962c0.18335,0.6022 0.55102,1.1242 1.03731,1.5h-3.41693c-1.51878,0 -2.75,-1.2312 -2.75,-2.75v-5.99997c0,-1.51878 1.23122,-2.75 2.75,-2.75zM17.25,15v-5.99997c0,-0.69036 -0.5596,-1.25 -1.25,-1.25h-2.2602c-0.046,-0.55704 -0.2441,-1.07093 -0.5528,-1.5h2.813c1.5188,0 2.75,1.23122 2.75,2.75v5.99997c0,1.5188 -1.2312,2.75 -2.75,2.75h-3.4169c0.4863,-0.3758 0.854,-0.8978 1.0373,-1.5h2.3796c0.6904,0 1.25,-0.5596 1.25,-1.25zM21.5,14.25c0,0.4142 -0.3358,0.75 -0.75,0.75c-0.4142,0 -0.75,-0.3358 -0.75,-0.75v-4.49997c0,-0.41421 0.3358,-0.75 0.75,-0.75c0.4142,0 0.75,0.33579 0.75,0.75zM10.75,7.50003c0.4142,0 0.75,0.33579 0.75,0.75v3.99997c0,0.4142 -0.3358,0.75 -0.75,0.75c-0.4142,0 -0.75,-0.3358 -0.75,-0.75v-3.99997c0,-0.41421 0.3358,-0.75 0.75,-0.75zM11.875,15.375c0,0.6214 -0.5036,1.125 -1.125,1.125c-0.6213,0 -1.12497,-0.5036 -1.12497,-1.125c0,-0.6213 0.50367,-1.125 1.12497,-1.125c0.6214,0 1.125,0.5037 1.125,1.125z" fill="#002B51"/>
</svg>

<svg width="24" height="24" viewBox="0 0 24 24" fill="none" xmlns="http://www.w3.org/2000/svg">
<path fill-rule="evenodd" clip-rule="evenodd" d="M5.50003 6.25003H8.31306C8.0044 6.6791 7.80626 7.19299 7.76031 7.75003H5.50003C4.80967 7.75003 4.25003 8.30967 4.25003 9.00003V15C4.25003 15.6904 4.80967 16.25 5.50003 16.25H7.87965C8.063 16.8522 8.43067 17.3742 8.91696 17.75H5.50003C3.98125 17.75 2.75003 16.5188 2.75003 15V9.00003C2.75003 7.48125 3.98125 6.25003 5.50003 6.25003ZM16 16.25H13.6204C13.4371 16.8522 13.0694 17.3742 12.5831 17.75H16C17.5188 17.75 18.75 16.5188 18.75 15V9.00003C18.75 7.48125 17.5188 6.25003 16 6.25003H13.187C13.4957 6.6791 13.6938 7.19299 13.7398 7.75003H16C16.6904 7.75003 17.25 8.30967 17.25 9.00003V15C17.25 15.6904 16.6904 16.25 16 16.25ZM21.5 9.75003C21.5 9.33582 21.1642 9.00003 20.75 9.00003C20.3358 9.00003 20 9.33582 20 9.75003V14.25C20 14.6642 20.3358 15 20.75 15C21.1642 15 21.5 14.6642 21.5 14.25V9.75003ZM10.75 7.50003C11.1642 7.50003 11.5 7.83582 11.5 8.25003V12.25C11.5 12.6642 11.1642 13 10.75 13C10.3358 13 10 12.6642 10 12.25V8.25003C10 7.83582 10.3358 7.50003 10.75 7.50003ZM11.875 15.375C11.875 15.9964 11.3714 16.5 10.75 16.5C10.1287 16.5 9.62503 15.9964 9.62503 15.375C9.62503 14.7537 10.1287 14.25 10.75 14.25C11.3714 14.25 11.875 14.7537 11.875 15.375Z" fill="#002B51"/>
</svg>
